X: 33757
T: Rattlin' Bog, The
R: polka
M: 2/4
K: Gmajor
GA|:B2 BA|GE E2|DG GA|BA A2|
B2 BA|GE E2|Dd dB|1 AG GA:|2 AG G2||
|:BG AG|BG AG/A/|Bd dB|AG A2|
BG AG|BG AG/A/|Bd dB|1 AG G2:|2 AG GA||

